bundle/image/components/regularButton/img/gift.svg

<svg width="47" height="47" viewBox="0 0 47 47" fill="none" xmlns="http://www.w3.org/2000/svg">
<path fill-rule="evenodd" clip-rule="evenodd" d="M6.83984 8.63965C6.83984 10.3276 7.39784 11.8856 8.33984 13.1396H4.83984C3.91159 13.1396 3.02135 13.5084 2.36497 14.1648C1.70859 14.8212 1.33984 15.7114 1.33984 16.6396V21.6396C1.33984 23.0356 2.15784 24.2396 3.33984 24.8036V41.6396C3.33984 43.5716 4.90784 45.1396 6.83984 45.1396H39.8398C40.7681 45.1396 41.6583 44.7709 42.3147 44.1145C42.9711 43.4581 43.3398 42.5679 43.3398 41.6396V24.8036C44.5218 24.2416 45.3398 23.0356 45.3398 21.6396V16.6396C45.3398 15.7114 44.9711 14.8212 44.3147 14.1648C43.6583 13.5084 42.7681 13.1396 41.8398 13.1396H38.3398C39.1755 12.0254 39.6845 10.7004 39.8095 9.31319C39.9346 7.92598 39.6709 6.53134 39.048 5.28555C38.4251 4.03975 37.4676 2.99203 36.2828 2.25977C35.098 1.52751 33.7327 1.13965 32.3398 1.13965C29.4278 1.13965 25.4678 2.94165 23.3398 7.35965C21.2118 2.94165 17.2498 1.13965 14.3398 1.13965C12.3507 1.13965 10.4431 1.92982 9.03654 3.33635C7.63002 4.74287 6.83984 6.65052 6.83984 8.63965ZM21.7798 13.1396C21.2058 6.15365 16.6398 4.13965 14.3398 4.13965C13.1464 4.13965 12.0018 4.61375 11.1579 5.45767C10.3139 6.30158 9.83984 7.44617 9.83984 8.63965C9.83984 9.83312 10.3139 10.9777 11.1579 11.8216C12.0018 12.6655 13.1464 13.1396 14.3398 13.1396H21.7798ZM40.3398 25.1396V41.6396C40.3398 41.7723 40.2872 41.8994 40.1934 41.9932C40.0996 42.087 39.9725 42.1396 39.8398 42.1396H24.8398V25.1396H40.3398ZM21.8398 42.1396V25.1396H6.33984V41.6396C6.33984 41.9156 6.56384 42.1396 6.83984 42.1396H21.8398ZM41.8398 22.1396C41.9725 22.1396 42.0996 22.087 42.1934 21.9932C42.2872 21.8994 42.3398 21.7723 42.3398 21.6396V16.6396C42.3398 16.507 42.2872 16.3799 42.1934 16.2861C42.0996 16.1923 41.9725 16.1396 41.8398 16.1396H24.8398V22.1396H41.8398ZM4.83984 22.1396H21.8398V16.1396H4.83984C4.70724 16.1396 4.58006 16.1923 4.48629 16.2861C4.39252 16.3799 4.33984 16.507 4.33984 16.6396V21.6396C4.33984 21.9156 4.56384 22.1396 4.83984 22.1396ZM36.8398 8.63965C36.8398 9.83312 36.3657 10.9777 35.5218 11.8216C34.6779 12.6655 33.5333 13.1396 32.3398 13.1396H24.8998C25.4738 6.15365 30.0398 4.13965 32.3398 4.13965C33.5333 4.13965 34.6779 4.61375 35.5218 5.45767C36.3657 6.30158 36.8398 7.44617 36.8398 8.63965Z" fill="black" stroke="black" stroke-width="2"/>
</svg>

<svg width="47" height="47" fill="none" xmlns="http://www.w3.org/2000/svg"><path fill-rule="evenodd" clip-rule="evenodd" d="M6.84 8.64c0 1.688.558 3.246 1.5 4.5h-3.5a3.5 3.5 0 0 0-3.5 3.5v5c0 1.396.818 2.6 2 3.164V41.64c0 1.932 1.568 3.5 3.5 3.5h33a3.5 3.5 0 0 0 3.5-3.5V24.804a3.503 3.503 0 0 0 2-3.164v-5a3.5 3.5 0 0 0-3.5-3.5h-3.5a7.499 7.499 0 0 0-6-12c-2.912 0-6.872 1.802-9 6.22-2.128-4.418-6.09-6.22-9-6.22a7.5 7.5 0 0 0-7.5 7.5zm14.94 4.5c-.574-6.986-5.14-9-7.44-9a4.5 4.5 0 0 0 0 9h7.44zm18.56 12v16.5a.5.5 0 0 1-.5.5h-15v-17h15.5zm-18.5 17v-17H6.34v16.5a.5.5 0 0 0 .5.5h15zm20-20a.5.5 0 0 0 .5-.5v-5a.5.5 0 0 0-.5-.5h-17v6h17zm-37 0h17v-6h-17a.5.5 0 0 0-.5.5v5a.5.5 0 0 0 .5.5zm32-13.5a4.5 4.5 0 0 1-4.5 4.5H24.9c.574-6.986 5.14-9 7.44-9a4.5 4.5 0 0 1 4.5 4.5z" fill="#000" stroke="#000" stroke-width="2"/></svg>
